X: 5
T:Blue-Eyed Stranger, Winster (Hkf)
M:4/4
L:1/8
A:Winster
P:A(ABA)8
K:G
P:A
G2BF|G2 D4  D2|E3F  G2BA|G2D2 D2D2|E3F  G2BF|
G2 D4  D2|EDEF G2A2|B2d2 cBAF|E3F  G4  ||
P:B
G2BF|GABc d2d2|B2c2 d4  |GABc d2d2|B2c2 d4  |
GABc d2d2|edcB A2GA|B2d2 cBAF|E3F  G4  ||
